li/gui-virus.svg

<svg role="img" focusable="false" aria-hidden="true" xmlns="http://www.w3.org/2000/svg" viewBox="0 0 14 14" height="1em" width="1em">
  <path d="m 13,8.05761 c 0,0.23957 -0.194364,0.43378 -0.433964,0.43378 -0.204032,0 -0.37411,-0.14152 -0.420467,-0.33161 L 9.5713056,7.78883 C 9.5053016,8.02936 9.4044063,8.25484 9.2725284,8.45934 L 10.554748,9.2714 c 0.142796,-0.15898 0.349381,-0.25958 0.580096,-0.25958 0.430942,0 0.780662,0.34972 0.780662,0.78081 0,0.43113 -0.349564,0.78082 -0.780662,0.78082 -0.431281,0 -0.780974,-0.34938 -0.780974,-0.78082 0,-0.10707 0.02158,-0.20911 0.06077,-0.30195 L 9.1206938,8.67135 C 8.7992204,9.06927 8.353999,9.36154 7.8442068,9.49466 l 0.2308449,1.42789 c 0.3019562,0.0104 0.5439278,0.25719 0.5439278,0.5617 0,0.31144 -0.2526031,0.56391 -0.5639141,0.56391 -0.311311,0 -0.563914,-0.25245 -0.563914,-0.56391 0,-0.22691 0.1350308,-0.42143 0.3284309,-0.51092 L 7.5891803,9.54657 c -0.1174158,0.0172 -0.2364212,0.0292 -0.3582669,0.0292 -0.329864,0 -0.6438068,-0.0671 -0.9304412,-0.18626 l -1.032483,2.80146 c 0.062747,0.0592 0.1024066,0.14277 0.1024066,0.23577 0,0.17964 -0.1455581,0.32543 -0.3253561,0.32543 -0.1796937,0 -0.3252518,-0.14551 -0.3252518,-0.32543 0,-0.17201 0.1339104,-0.31129 0.3028944,-0.32304 L 6.0646503,9.27686 C 5.8537135,9.16106 5.6618769,9.01506 5.4949515,8.84433 l -1.6046313,1.17194 c -0.00357,0.21227 -0.1762802,0.38367 -0.3896143,0.38367 -0.2155491,0 -0.3902397,-0.17469 -0.3902397,-0.39031 0,-0.21563 0.1746906,-0.39032 0.3902397,-0.39032 0.1204385,0 0.226832,0.0559 0.2983082,0.14154 L 5.3234138,8.64746 C 5.0895989,8.35073 4.9228558,7.99911 4.8478097,7.61406 L 2.4699952,7.83682 C 2.4287462,8.20494 2.1165751,8.49116 1.7375141,8.49116 1.3302067,8.49108 1.0000039,8.16106 1.0000039,7.75391 c 0,-0.40747 0.3302028,-0.73767 0.7375102,-0.73767 0.3461241,0 0.6357811,0.23898 0.7151267,0.56058 L 4.8122931,7.35517 c -0.00589,-0.0689 -0.010553,-0.13821 -0.010553,-0.20851 0,-0.48045 0.1412847,-0.927 0.3819012,-1.304 L 4.6589959,5.44715 C 4.5358734,5.55878 4.3740292,5.62851 4.1948306,5.62851 c -0.3832562,0 -0.6939418,-0.31066 -0.6939418,-0.69394 0,-0.38325 0.3106856,-0.69394 0.6939418,-0.69394 0.3834907,0 0.6940981,0.31069 0.6940981,0.69394 0,0.10981 -0.027934,0.21229 -0.073222,0.3048 L 5.3348015,5.63042 C 5.6644311,5.21876 6.1254434,4.91831 6.6542838,4.78914 L 6.1684124,2.02185 C 5.983872,1.99095 5.8429782,1.83142 5.8429782,1.63809 c 0,-0.21562 0.1746906,-0.39026 0.3902397,-0.39026 0.2156272,0 0.3903178,0.17461 0.3903178,0.39026 0,0.14556 -0.080596,0.271 -0.1988982,0.33826 l 0.4852981,2.76506 c 0.1051948,-0.014 0.2118228,-0.0237 0.3206657,-0.0237 0.2744914,0 0.5377521,0.0465 0.783502,0.13073 L 8.5694443,3.30007 C 8.5065933,3.24077 8.4669335,3.15727 8.4669335,3.06411 c 0,-0.17969 0.1456623,-0.3254 0.3252518,-0.3254 0.1797719,0 0.3252518,0.14558 0.3252518,0.3254 0,0.17209 -0.1339103,0.31132 -0.302738,0.32307 L 8.2558924,4.94595 c 0.3757255,0.17628 0.6997266,0.44538 0.941203,0.77876 l 1.7304376,-0.989 c -0.01949,-0.0606 -0.03283,-0.12432 -0.03283,-0.19144 0,-0.34811 0.281945,-0.63023 0.630231,-0.63023 0.348287,0 0.630257,0.2821 0.630257,0.63023 0,0.34805 -0.281944,0.63018 -0.630257,0.63018 -0.187068,0 -0.353368,-0.0831 -0.468855,-0.21256 L 9.3388258,5.94328 c 0.2030935,0.35501 0.3209784,0.76526 0.3209784,1.20342 0,0.13216 -0.013342,0.26071 -0.03364,0.38732 L 12.1628,7.89927 c 0.06363,-0.16088 0.219771,-0.27543 0.40319,-0.27543 0.23947,0 0.434017,0.19421 0.434017,0.43381 z"/>
</svg>

<svg aria-hidden="true" xmlns="http://www.w3.org/2000/svg" viewBox="0 0 14 14" height="1em" width="1em">
  <path d="M13 8.058a.434.434 0 0 1-.854.102L9.57 7.789c-.066.24-.167.466-.298.67l1.282.812a.781.781 0 1 1-.14.22L9.12 8.67a2.43 2.43 0 0 1-1.277.824l.231 1.428a.562.562 0 0 1-.02 1.125.564.564 0 0 1-.235-1.075l-.23-1.426A2.418 2.418 0 0 1 6.3 9.39l-1.033 2.8a.325.325 0 1 1-.245-.087l1.042-2.827a2.437 2.437 0 0 1-.57-.433L3.89 10.016a.39.39 0 1 1-.091-.255l1.524-1.114a2.415 2.415 0 0 1-.475-1.033l-2.378.223a.737.737 0 1 1-.017-.26l2.36-.222a2.415 2.415 0 0 1 .371-1.513l-.525-.395a.694.694 0 1 1 .157-.208l.519.391c.33-.411.79-.712 1.32-.84l-.487-2.768a.39.39 0 1 1 .257-.046l.485 2.765a2.411 2.411 0 0 1 1.104.107L8.57 3.3a.325.325 0 1 1 .245.087l-.558 1.559c.376.176.7.445.941.779l1.73-.99a.623.623 0 0 1-.032-.19.63.63 0 1 1 .161.417l-1.717.981a2.416 2.416 0 0 1 .287 1.591l2.537.365a.434.434 0 0 1 .837.159z"/>
</svg>
